!!!OTL: 962. Reigen um den Maibaum.
!!!ARE: Europa, Mitteleuropa, Deutschland, Rheinland, Siebengebirge
!!!SCT: E0962
!!!TXL: @@DE
!!!YEM: Copyright 1995, estate of Helmut Schaffrath.
**kern	**text
*ICvox	*
*M4/4	*
*met(c)	*
*k[f#]	*
*G:	*
!LO:TX:a:t=Frisch.	!
!LO:TX:a:t=Mel. aus dem Siebengebirge (vor 1860). Dr. Arnold's Mſpt.	!
{8d	Der
=1	=1
4.g	Mai,
8a	der
4b	Mai,
4dd	der
=2	=2
(8ccqq	.
4b)	lu-
8aL	-ſti-
8bJ	-ge
4g	Mai,
8r}	.
{8a	der
=3	=3
4b	kommt
4dd	her-
4ee	-an
4dd	ge-
=4	=4
(4.a	-rau-
8dd)	.
4dd	-ſchet.
8r}	.
{8d	Jch
=5	=5
4g	ging
8gL	in
8aJ	den
4b	Buſch
4dd	und
=6	=6
8ddL	brach
8ccJ	mir
8bL	ei-
8aJ	-nen
4b	Mai,
8r}	.
{8dd	der
=7	=7
4ee	Mai
8ddL	und
8ccJ	.
8bL	der
8aJ	.
8gL	war
8bJ	.
=8	=8
2a	grü-
4g	-ne.
4r}	.
=9	=9
!LO:TX:a:t=Refr.	!
{4.b/	Fal,
8a	de-
4g	-ra,
4a	vi-
=10	=10
8b	-dub-
8a	-be
8b	dub-
8cc	-be-
4dd	-dub,
8r}	.
{8dd	der
=11	=11
4ee	Mai
8ddL	und
8ccJ	.
8bL	der
8aJ	.
8gL	war
8bJ	.
=12	=12
2a	grü-
4g	-ne.
8r}	.
==	==
!!!AGN: Tanz - Lied, Reigen, Mai - Tanz
!!!ONB: ESAC (Essen Associative Code) Database: ERK2
!!!AMT: simple quadruple
!!!AIN: vox
!!!EED: Helmut Schaffrath
!!!EEV: 1.0
!!!GTL: Tanz- und Spiellieder.
!!!URL-scan: https://rosdok.uni-rostock.de/mcrviewer/recordIdentifier/rosdok_ppn745177662/iview2/phys_0735.iview2?x=-151.00528573090037&y=1319.6688788984902&scale=0.5208463313777512&rotation=0&layout=singlePageLayout
!!!ENC: Anna Maria Matuszewska
!!!EEV: 2024/12/20
*-	*-
